public/images/bd9.svg

<svg width="100" height="100" viewBox="0 0 100 100" fill="none" xmlns="http://www.w3.org/2000/svg">
<path d="M65.0724 1H36.0362L21.5181 26.3167L36.0362 51.7967H65.0724L79.4818 26.3167L65.0724 1Z" fill="#0078D7"/>
<path d="M46.4218 29.42C44.6818 29.42 43.4856 30.9989 43.4856 33.83C43.4856 36.6067 44.5731 38.24 46.2587 38.24C48.1074 38.24 49.1949 36.6612 49.1949 33.83C49.2493 30.9989 48.0531 29.42 46.4218 29.42ZM46.3131 37.1512C45.2256 37.1512 44.5731 35.9534 44.5731 33.83C44.5731 31.5434 45.3887 30.3456 46.3131 30.3456C47.4006 30.3456 48.0531 31.5434 48.0531 33.6667C48.0531 35.79 47.2374 37.1512 46.3131 37.1512Z" fill="white"/>
<path d="M53.7624 25.5545C55.6112 25.5545 56.6987 23.9756 56.6987 21.1445C56.6987 18.4767 55.6112 16.8978 53.9256 16.8978C52.1856 16.8978 50.9893 18.4767 50.9893 21.3078C50.9893 23.9212 52.1856 25.5545 53.7624 25.5545ZM52.1856 21.1445C52.1856 18.8578 53.0012 17.66 53.9256 17.66C55.0131 17.66 55.6656 18.8578 55.6656 20.9812C55.6656 23.1045 55.0131 24.4656 53.9256 24.4656C52.8381 24.4656 52.1856 23.4312 52.1856 21.1445Z" fill="white"/>
<path d="M47.7812 16.6256H46.6937L43.9206 18.0956L44.4643 19.1301L46.4218 17.9323V24.3567H44.1924V25.5545H49.6299V24.3567H47.7812V16.6256Z" fill="white"/>
<path d="M54.6868 36.4978V28.7667H53.6537L50.8262 30.0734L51.2068 31.1623L53.3818 29.9645V36.4978H51.0981V37.5323H56.6987V36.4978H54.6868Z" fill="white"/>
<path d="M58.9824 12.0522H39.5162C37.3956 12.0522 35.6556 13.7945 35.5468 15.9178V38.4578C35.5468 40.5811 37.2868 42.3234 39.5162 42.3234H61.1031C63.2237 42.3234 64.9637 40.5811 65.0724 38.4578V18.0956L58.9824 12.0522ZM63.2237 38.8934C63.2237 39.9822 62.2993 40.7445 61.3749 40.7445H39.2443C38.1568 40.7445 37.5043 39.9278 37.3956 39.0022V38.8934V15.8089C37.3956 14.72 38.2112 14.0667 39.1356 13.9578H39.2443H58.5474V19.4022H63.2237V38.8934Z" fill="white"/>
<path d="M18.9081 74.01H16.6787L15.5912 70.9067H10.8062L9.77308 74.01H7.5437L12.1112 61.8145H14.395L18.9081 74.01ZM15.1018 69.2189L13.4162 64.3733C13.3618 64.21 13.3075 63.9378 13.2531 63.6111H13.1987C13.1443 63.9378 13.09 64.21 13.0356 64.3733L11.35 69.2189H15.1018Z" fill="#606060"/>
<path d="M26.7925 66.1156L22.1162 72.4856H26.7925V74.0101H19.3431V73.2478L24.1281 66.8234H19.7781V65.299H26.7925V66.1156Z" fill="#606060"/>
<path d="M36.0362 74.0101H34.0787V72.649H34.0243C33.4262 73.6834 32.5562 74.2278 31.3599 74.2278C29.2937 74.2278 28.2606 72.9756 28.2606 70.5256V65.299H30.2181V70.3078C30.2181 71.8867 30.8162 72.649 32.0124 72.649C32.6106 72.649 33.0999 72.4312 33.4262 71.9956C33.8068 71.5601 33.9699 71.0156 33.9699 70.3078V65.299H35.9275V74.0101H36.0362Z" fill="#606060"/>
<path d="M43.6487 67.1501C43.4312 66.9867 43.0506 66.8778 42.6156 66.8778C42.0175 66.8778 41.5281 67.1501 41.1475 67.6945C40.7668 68.239 40.5493 68.9467 40.5493 69.8723V74.0645H38.5918V65.3534H40.5493V67.1501H40.6037C40.8212 66.5512 41.0931 66.0612 41.4737 65.7345C41.8543 65.4078 42.3437 65.2445 42.8331 65.2445C43.2137 65.2445 43.4856 65.299 43.6487 65.4078V67.1501Z" fill="#606060"/>
<path d="M52.2943 70.199H46.3675C46.3675 71.0156 46.6393 71.6145 47.1287 72.0501C47.6181 72.4856 48.2706 72.7034 49.0862 72.7034C50.0106 72.7034 50.8806 72.4312 51.6418 71.8867V73.4656C50.8262 73.9556 49.7931 74.2278 48.4881 74.2278C47.1831 74.2278 46.2043 73.8467 45.4975 73.0301C44.7906 72.2134 44.41 71.1245 44.41 69.709C44.41 68.3478 44.7906 67.259 45.6062 66.3878C46.4218 65.5167 47.4006 65.0812 48.5968 65.0812C49.7931 65.0812 50.7175 65.4623 51.37 66.2245C52.0225 66.9867 52.3487 68.0756 52.3487 69.4367V70.199H52.2943ZM50.3912 68.7834C50.3912 68.0756 50.2281 67.5312 49.9018 67.1501C49.5756 66.769 49.1406 66.5512 48.5425 66.5512C47.9987 66.5512 47.5093 66.769 47.1287 67.1501C46.7481 67.5856 46.4762 68.1301 46.4218 68.7834H50.3912Z" fill="#606060"/>
<path d="M59.1456 74.01V61.8145H63.0062C64.2024 61.8145 65.1268 62.0867 65.7793 62.5767C66.4862 63.0667 66.8124 63.7745 66.8124 64.5911C66.8124 65.2989 66.5949 65.8978 66.2143 66.3878C65.8337 66.8778 65.2899 67.2589 64.5831 67.4767V67.5311C65.3987 67.64 66.1056 67.9122 66.5949 68.4567C67.0843 69.0011 67.3562 69.6545 67.3562 70.5256C67.3562 71.56 66.9212 72.4311 66.1056 73.0845C65.2899 73.7378 64.2568 74.0645 63.0062 74.0645H59.1456V74.01ZM61.1574 63.3933V66.8778H62.4624C63.1693 66.8778 63.7131 66.7145 64.0937 66.3878C64.4743 66.0611 64.6918 65.5711 64.6918 64.9722C64.6918 63.9378 63.9849 63.3933 62.6256 63.3933H61.1574ZM61.1574 68.5111V72.3767H62.8974C63.6587 72.3767 64.2568 72.2133 64.6374 71.8322C65.0724 71.5056 65.2356 71.0156 65.2356 70.4167C65.2356 69.1645 64.3656 68.5111 62.6256 68.5111H61.1574Z" fill="#606060"/>
<path d="M71.4343 74.01H69.4768V61.1067H71.4343V74.01Z" fill="#606060"/>
<path d="M77.8506 74.1734C76.4912 74.1734 75.4581 73.7923 74.6424 72.9756C73.8268 72.159 73.4462 71.0701 73.4462 69.7634C73.4462 68.2934 73.8812 67.1501 74.6968 66.3334C75.5124 65.5167 76.6543 65.0812 78.0681 65.0812C79.4274 65.0812 80.4606 65.4623 81.2218 66.279C81.9831 67.0956 82.3637 68.1845 82.3637 69.6001C82.3637 71.0156 81.9287 72.1045 81.1131 72.9212C80.3518 73.7923 79.21 74.1734 77.8506 74.1734ZM77.9593 66.6601C77.1981 66.6601 76.5999 66.9323 76.1106 67.4767C75.6756 68.0212 75.4581 68.7834 75.4581 69.709C75.4581 70.6345 75.6756 71.3423 76.1649 71.8867C76.5999 72.4312 77.1981 72.649 77.9593 72.649C78.7206 72.649 79.3187 72.3767 79.7537 71.8867C80.1887 71.3967 80.3518 70.6345 80.3518 69.709C80.3518 68.729 80.1343 68.0212 79.7537 67.4767C79.3187 66.9323 78.7206 66.6601 77.9593 66.6601Z" fill="#606060"/>
<path d="M86.3875 72.7578L86.3331 74.01H84.3756V61.1067H86.3331V66.8234H86.3875C87.04 65.68 88.0731 65.0811 89.3237 65.0811C90.4112 65.0811 91.2812 65.4622 91.8793 66.2245C92.4775 66.9867 92.8037 68.0756 92.8037 69.3822C92.8037 70.8522 92.4774 71.9956 91.7706 72.8667C91.0637 73.7378 90.1393 74.1734 88.8887 74.1734C87.8012 74.1734 86.9856 73.6834 86.3875 72.7578ZM86.3331 69.2734V70.3622C86.3331 71.0156 86.5506 71.56 86.9312 71.9956C87.3118 72.4311 87.8556 72.6489 88.4537 72.6489C89.1606 72.6489 89.7587 72.3767 90.1937 71.7778C90.6287 71.1789 90.7918 70.4167 90.7918 69.3822C90.7918 68.5111 90.5743 67.8578 90.1937 67.3678C89.8131 66.8778 89.2693 66.66 88.6168 66.66C87.91 66.66 87.3662 66.9322 86.9312 67.4222C86.5506 67.9122 86.3331 68.5111 86.3331 69.2734Z" fill="#606060"/>
<path d="M21.0287 94.4266V92.3577C21.1918 92.5211 21.4637 92.6844 21.6812 92.7933C21.9531 92.9566 22.225 93.0655 22.4968 93.12C22.7687 93.1744 23.095 93.2833 23.3668 93.3377C23.6387 93.3922 23.9106 93.3922 24.1825 93.3922C25.0525 93.3922 25.6506 93.2288 26.0856 92.9566C26.5206 92.6844 26.6837 92.2489 26.6837 91.7044C26.6837 91.4322 26.6293 91.16 26.4662 90.9422C26.3031 90.7244 26.14 90.5611 25.8681 90.3433C25.5962 90.18 25.3243 90.0166 24.9981 89.8533C24.6718 89.69 24.2912 89.5266 23.9106 89.3633C23.4756 89.1455 23.095 88.9277 22.7687 88.71C22.3881 88.4922 22.1162 88.22 21.8443 87.9477C21.5725 87.6755 21.355 87.3489 21.2462 87.0222C21.0831 86.6955 21.0287 86.26 21.0287 85.8244C21.0287 85.2255 21.1375 84.7355 21.4093 84.3544C21.6812 83.9189 22.0075 83.5922 22.4425 83.32C22.8775 83.0477 23.3668 82.83 23.8562 82.7211C24.4 82.6122 24.9437 82.5033 25.4875 82.5033C26.7381 82.5033 27.7168 82.6666 28.2606 82.9389V84.9533C27.5537 84.4633 26.6837 84.1911 25.5962 84.1911C25.27 84.1911 24.9981 84.2455 24.7262 84.3C24.4543 84.3544 24.1825 84.4633 23.9106 84.5722C23.6931 84.6811 23.4756 84.8444 23.3125 85.0622C23.1493 85.28 23.095 85.4977 23.095 85.8244C23.095 86.0966 23.1493 86.3144 23.2581 86.5322C23.3668 86.75 23.53 86.9133 23.7475 87.0766C23.965 87.24 24.2368 87.4033 24.5631 87.5666C24.8893 87.73 25.2156 87.8933 25.6506 88.0566C26.0856 88.2744 26.4662 88.4922 26.8468 88.7644C27.2275 88.9822 27.5537 89.2544 27.8256 89.5811C28.0975 89.8533 28.315 90.18 28.5325 90.5611C28.6956 90.9422 28.8043 91.3233 28.8043 91.8133C28.8043 92.4122 28.6956 92.9566 28.4237 93.3922C28.1518 93.8277 27.8256 94.1544 27.3906 94.4266C26.9556 94.6989 26.4662 94.8622 25.9225 95.0255C25.3787 95.1344 24.7806 95.1889 24.1825 95.1889C23.965 95.1889 23.7475 95.1888 23.4212 95.1344C23.1493 95.08 22.8231 95.08 22.4968 94.9711C22.1706 94.9166 21.8987 94.8622 21.6268 94.7533C21.4637 94.6444 21.1918 94.5355 21.0287 94.4266Z" fill="#606060"/>
<path d="M34.9487 94.8078C34.5681 95.0256 34.0787 95.0801 33.4262 95.0801C31.7406 95.0801 30.8706 94.2634 30.8706 92.6301V87.7301H29.4025V86.2056H30.8706V84.1912L32.8281 83.6467V86.2056H34.8943V87.7301H32.8281V92.0856C32.8281 92.5756 32.9368 92.9567 33.1 93.1745C33.2631 93.3923 33.5893 93.5012 34.0243 93.5012C34.3506 93.5012 34.6225 93.3923 34.8943 93.2289V94.8078H34.9487Z" fill="#606060"/>
<path d="M40.3862 95.08C39.0268 95.08 37.9937 94.6989 37.1781 93.8822C36.3625 93.0656 35.9818 91.9767 35.9818 90.67C35.9818 89.2 36.4168 88.0567 37.2325 87.24C38.0481 86.4233 39.19 85.9878 40.6037 85.9878C41.9631 85.9878 42.9962 86.3689 43.7575 87.1856C44.5187 88.0022 44.8993 89.0911 44.8993 90.5067C44.8993 91.9222 44.4643 93.0111 43.6487 93.8278C42.8875 94.6989 41.8 95.08 40.3862 95.08ZM40.495 87.5667C39.7337 87.5667 39.1356 87.8389 38.6462 88.3833C38.2112 88.9278 37.9937 89.69 37.9937 90.6156C37.9937 91.5411 38.2112 92.2489 38.7006 92.7933C39.1356 93.3378 39.7337 93.5556 40.495 93.5556C41.2562 93.5556 41.8543 93.2833 42.2893 92.7933C42.7243 92.3033 42.8875 91.5411 42.8875 90.6156C42.8875 89.6356 42.67 88.9278 42.2893 88.3833C41.8543 87.8389 41.2562 87.5667 40.495 87.5667Z" fill="#606060"/>
<path d="M51.9681 88.0567C51.7506 87.8933 51.3699 87.7845 50.9349 87.7845C50.3368 87.7845 49.8474 88.0567 49.4668 88.6011C49.0862 89.1456 48.8687 89.8533 48.8687 90.7789V94.9711H46.9112V86.26H48.8687V88.0567H48.9231C49.1406 87.4578 49.4124 86.9678 49.7931 86.6411C50.1737 86.3145 50.6631 86.1511 51.1524 86.1511C51.5331 86.1511 51.8049 86.2056 51.9681 86.3145V88.0567Z" fill="#606060"/>
<path d="M60.07 94.9167H58.1125V93.5556C57.5143 94.59 56.6443 95.1345 55.4481 95.1345C54.5781 95.1345 53.9256 94.9167 53.4362 94.4267C52.9468 93.9367 52.7293 93.3378 52.7293 92.5756C52.7293 90.9422 53.6537 89.9622 55.5568 89.69L58.1668 89.3089C58.1668 88.0567 57.5687 87.4578 56.3725 87.4578C55.3393 87.4578 54.4149 87.8389 53.5449 88.5467V86.8045C54.4693 86.26 55.5025 85.9878 56.6987 85.9878C58.8737 85.9878 60.0156 87.0767 60.0156 89.2545V94.9167H60.07ZM58.1668 90.6156L56.3181 90.8878C55.7743 90.9422 55.3393 91.1056 55.0131 91.3233C54.7412 91.5411 54.5781 91.8678 54.5781 92.3578C54.5781 92.7389 54.6868 93.0111 54.9587 93.2833C55.2306 93.5011 55.5568 93.61 55.9918 93.61C56.5899 93.61 57.0793 93.3922 57.46 92.9567C57.8406 92.5211 58.0581 91.9767 58.0581 91.3778V90.6156H58.1668Z" fill="#606060"/>
<path d="M70.3468 94.2089C70.3468 97.4211 68.7156 99 65.5074 99C64.3656 99 63.3868 98.8367 62.5168 98.4556V96.6589C63.4956 97.2033 64.3656 97.4756 65.2356 97.4756C67.3018 97.4756 68.335 96.4411 68.335 94.4267V93.4467H68.2806C67.6281 94.5356 66.6493 95.1345 65.3443 95.1345C64.3112 95.1345 63.4412 94.7534 62.7887 93.9911C62.1362 93.2289 61.81 92.1945 61.81 90.8878C61.81 89.4178 62.1362 88.22 62.8431 87.3489C63.5499 86.4778 64.4743 86.0422 65.725 86.0422C66.8668 86.0422 67.7368 86.5322 68.2806 87.4578H68.335V86.26H70.2925V94.2089H70.3468ZM68.4437 90.8878V89.7445C68.4437 89.1456 68.2262 88.6011 67.8456 88.1656C67.465 87.73 66.9212 87.5122 66.3231 87.5122C65.5618 87.5122 64.9637 87.7845 64.5831 88.3289C64.1481 88.8733 63.9306 89.6356 63.9306 90.67C63.9306 91.5411 64.1481 92.1945 64.5287 92.7389C64.9093 93.2289 65.4531 93.5011 66.16 93.5011C66.8668 93.5011 67.4106 93.2289 67.7912 92.7389C68.2262 92.3033 68.4437 91.65 68.4437 90.8878Z" fill="#606060"/>
<path d="M80.2975 91.1056H74.3706C74.3706 91.9222 74.6425 92.5211 75.1318 92.9567C75.6212 93.3922 76.2737 93.61 77.0893 93.61C78.0137 93.61 78.8837 93.3378 79.645 92.7933V94.3722C78.8293 94.8622 77.7962 95.1345 76.4912 95.1345C75.1862 95.1345 74.2075 94.7533 73.5006 93.9367C72.7937 93.12 72.4131 92.0311 72.4131 90.6156C72.4131 89.2545 72.7937 88.1656 73.6093 87.2945C74.425 86.4233 75.4037 85.9878 76.6 85.9878C77.7962 85.9878 78.7206 86.3689 79.3731 87.1311C80.0256 87.8933 80.3518 88.9822 80.3518 90.3433V91.1056H80.2975ZM78.3943 89.69C78.3943 88.9822 78.2312 88.4378 77.905 88.0567C77.5787 87.6756 77.1437 87.4578 76.5456 87.4578C76.0018 87.4578 75.5125 87.6756 75.1318 88.0567C74.7512 88.4922 74.4793 89.0367 74.425 89.69H78.3943Z" fill="#606060"/>
</svg>

<svg xmlns="http://www.w3.org/2000/svg" width="100" height="100" fill="none"><path fill="#0078D7" d="M65.072 1H36.036L21.518 26.317l14.518 25.48h29.036l14.41-25.48z"/><path fill="#fff" d="M46.422 29.42c-1.74 0-2.936 1.579-2.936 4.41 0 2.777 1.087 4.41 2.773 4.41 1.848 0 2.936-1.579 2.936-4.41.054-2.831-1.142-4.41-2.773-4.41m-.109 7.731c-1.087 0-1.74-1.198-1.74-3.321 0-2.287.816-3.484 1.74-3.484 1.088 0 1.74 1.197 1.74 3.32 0 2.124-.816 3.485-1.74 3.485M53.762 25.555c1.85 0 2.937-1.58 2.937-4.41 0-2.668-1.088-4.247-2.773-4.247-1.74 0-2.937 1.579-2.937 4.41 0 2.613 1.197 4.247 2.773 4.247m-1.576-4.41c0-2.287.815-3.485 1.74-3.485 1.087 0 1.74 1.198 1.74 3.321s-.653 3.485-1.74 3.485c-1.088 0-1.74-1.035-1.74-3.322M47.781 16.626h-1.087l-2.773 1.47.543 1.034 1.958-1.198v6.425h-2.23v1.198h5.438v-1.198H47.78zM54.687 36.498v-7.731h-1.033l-2.828 1.306.38 1.09 2.176-1.198v6.533h-2.284v1.034h5.6v-1.034z"/><path fill="#fff" d="M58.982 12.052H39.516c-2.12 0-3.86 1.742-3.97 3.866v22.54c0 2.123 1.74 3.865 3.97 3.865h21.587c2.12 0 3.86-1.742 3.97-3.865V18.096zm4.242 26.841c0 1.09-.925 1.852-1.85 1.852h-22.13c-1.087 0-1.74-.817-1.848-1.743V15.81c0-1.089.815-1.742 1.74-1.851h19.411v5.444h4.677z"/><path fill="#606060" d="M18.908 74.01h-2.23l-1.087-3.103h-4.785L9.773 74.01h-2.23l4.568-12.196h2.284zm-3.806-4.791-1.686-4.846a6 6 0 0 1-.163-.762H13.2a6 6 0 0 1-.163.762L11.35 69.22zM26.793 66.116l-4.677 6.37h4.677v1.524h-7.45v-.762l4.785-6.425h-4.35V65.3h7.015zM36.036 74.01H34.08V72.65h-.055c-.598 1.034-1.468 1.579-2.664 1.579-2.066 0-3.1-1.252-3.1-3.702v-5.227h1.958v5.009c0 1.579.598 2.341 1.794 2.341.599 0 1.088-.218 1.414-.653.38-.436.544-.98.544-1.688v-5.009h1.958v8.711zM43.649 67.15c-.218-.163-.598-.272-1.033-.272q-.898 0-1.468.817c-.381.544-.599 1.252-.599 2.177v4.192h-1.957v-8.71h1.957v1.796h.055c.217-.599.49-1.089.87-1.416s.87-.49 1.36-.49q.57 0 .815.164zM52.294 70.199h-5.926c0 .817.271 1.416.76 1.851q.735.654 1.958.653c.925 0 1.795-.272 2.556-.816v1.579c-.816.49-1.849.762-3.154.762s-2.284-.381-2.99-1.198-1.088-1.906-1.088-3.321c0-1.361.38-2.45 1.196-3.321s1.795-1.307 2.99-1.307q1.796 0 2.774 1.144c.653.762.979 1.85.979 3.212v.762zm-1.903-1.416q0-1.061-.49-1.633c-.325-.381-.76-.599-1.359-.599-.543 0-1.033.218-1.413.6-.38.435-.653.98-.707 1.632zM59.146 74.01V61.814h3.86c1.196 0 2.12.273 2.773.763.707.49 1.033 1.198 1.033 2.014 0 .708-.217 1.307-.598 1.797-.38.49-.924.87-1.63 1.089v.054c.815.109 1.522.381 2.01.926.49.544.762 1.198.762 2.069 0 1.034-.435 1.905-1.25 2.559q-1.224.98-3.1.98h-3.86zm2.011-10.617v3.485h1.305q1.06 0 1.632-.49c.38-.327.598-.817.598-1.416 0-1.034-.707-1.579-2.066-1.579zm0 5.118v3.866h1.74c.762 0 1.36-.164 1.74-.545.435-.326.599-.816.599-1.415 0-1.252-.87-1.906-2.61-1.906zM71.434 74.01h-1.957V61.107h1.957zM77.85 74.173c-1.359 0-2.392-.38-3.208-1.197-.815-.817-1.196-1.906-1.196-3.213 0-1.47.435-2.613 1.25-3.43.816-.816 1.958-1.252 3.372-1.252 1.36 0 2.393.381 3.154 1.198s1.142 1.906 1.142 3.321-.435 2.505-1.25 3.321c-.762.871-1.904 1.252-3.263 1.252m.11-7.513c-.762 0-1.36.272-1.85.817-.434.544-.652 1.306-.652 2.232 0 .925.218 1.633.707 2.178.435.544 1.033.762 1.794.762s1.36-.272 1.795-.762.598-1.252.598-2.178c0-.98-.218-1.688-.598-2.232q-.652-.817-1.795-.817M86.388 72.758l-.055 1.252h-1.957V61.107h1.957v5.716h.055c.652-1.143 1.685-1.742 2.936-1.742 1.087 0 1.957.381 2.555 1.144s.925 1.85.925 3.157c0 1.47-.327 2.614-1.033 3.485-.707.87-1.632 1.306-2.882 1.306-1.088 0-1.903-.49-2.501-1.415m-.055-3.485v1.09c0 .653.218 1.197.598 1.633s.925.653 1.523.653c.707 0 1.305-.272 1.74-.871.435-.6.598-1.361.598-2.396 0-.87-.218-1.524-.598-2.014s-.925-.708-1.577-.708c-.707 0-1.25.272-1.686.762-.38.49-.598 1.09-.598 1.851M21.029 94.427v-2.07c.163.164.435.327.652.436q.408.245.816.327c.272.054.598.163.87.218s.544.054.816.054c.87 0 1.468-.163 1.903-.435.435-.273.598-.708.598-1.253 0-.272-.055-.544-.218-.762a3 3 0 0 0-.598-.599c-.272-.163-.544-.326-.87-.49a21 21 0 0 0-1.087-.49 11 11 0 0 1-1.142-.653c-.38-.218-.653-.49-.925-.762a2.46 2.46 0 0 1-.598-.926c-.163-.327-.217-.762-.217-1.198 0-.599.108-1.088.38-1.47a3.1 3.1 0 0 1 1.034-1.034c.434-.272.924-.49 1.413-.599.544-.109 1.088-.218 1.631-.218 1.251 0 2.23.164 2.774.436v2.014c-.707-.49-1.577-.762-2.665-.762-.326 0-.598.055-.87.109s-.543.163-.815.272a1.7 1.7 0 0 0-.599.49c-.163.218-.217.436-.217.762 0 .273.054.49.163.708s.272.381.49.545q.326.244.815.49c.326.163.653.326 1.088.49.435.217.815.435 1.196.707q.57.327.979.817c.271.272.489.599.706.98.164.381.272.762.272 1.252 0 .6-.108 1.144-.38 1.58a3.1 3.1 0 0 1-1.033 1.034c-.435.272-.925.435-1.468.598a9 9 0 0 1-1.74.164c-.218 0-.436 0-.762-.055-.272-.054-.598-.054-.924-.163-.326-.054-.598-.109-.87-.218-.163-.109-.435-.218-.598-.326M34.949 94.808c-.38.218-.87.272-1.523.272-1.685 0-2.555-.817-2.555-2.45v-4.9h-1.468v-1.524h1.468V84.19l1.957-.544v2.559h2.066v1.524h-2.066v4.356c0 .49.109.87.272 1.088s.49.327.924.327c.327 0 .599-.109.87-.272v1.579zM40.386 95.08c-1.36 0-2.392-.381-3.208-1.198-.816-.816-1.196-1.905-1.196-3.212 0-1.47.435-2.613 1.25-3.43.816-.817 1.958-1.252 3.372-1.252 1.36 0 2.392.38 3.154 1.198.76.816 1.141 1.905 1.141 3.32 0 1.416-.435 2.505-1.25 3.322-.761.87-1.849 1.252-3.263 1.252m.109-7.513c-.761 0-1.36.272-1.849.816-.435.545-.652 1.307-.652 2.233 0 .925.217 1.633.707 2.177.435.545 1.033.763 1.794.763s1.36-.273 1.794-.763c.435-.49.599-1.252.599-2.177 0-.98-.218-1.688-.599-2.233q-.653-.816-1.794-.816M51.968 88.057c-.217-.164-.598-.273-1.033-.273q-.898 0-1.468.817c-.38.545-.598 1.252-.598 2.178v4.192H46.91V86.26h1.958v1.797h.054c.218-.6.49-1.09.87-1.416.38-.327.87-.49 1.36-.49q.57 0 .815.163zM60.07 94.917h-1.958v-1.361c-.598 1.034-1.468 1.579-2.664 1.579-.87 0-1.522-.218-2.012-.708s-.707-1.09-.707-1.851c0-1.634.925-2.614 2.828-2.886l2.61-.381c0-1.252-.598-1.851-1.794-1.851-1.034 0-1.958.38-2.828 1.089v-1.742c.924-.545 1.957-.817 3.154-.817 2.175 0 3.317 1.089 3.317 3.266v5.663zm-1.903-4.301-1.849.272c-.544.054-.979.218-1.305.435-.272.218-.435.545-.435 1.035 0 .38.109.653.38.925.273.218.599.327 1.034.327q.897 0 1.468-.653c.38-.436.598-.98.598-1.58v-.761zM70.347 94.209c0 3.212-1.631 4.791-4.84 4.791-1.141 0-2.12-.163-2.99-.544v-1.797c.979.544 1.849.817 2.719.817 2.066 0 3.099-1.035 3.099-3.05v-.98h-.054c-.653 1.09-1.632 1.689-2.937 1.689-1.033 0-1.903-.382-2.555-1.144q-.98-1.143-.979-3.103c0-1.47.326-2.668 1.033-3.54.707-.87 1.631-1.306 2.882-1.306 1.142 0 2.012.49 2.556 1.416h.054V86.26h1.958v7.949zm-1.903-3.321v-1.144c0-.598-.218-1.143-.598-1.578-.381-.436-.925-.654-1.523-.654-.761 0-1.36.272-1.74.817-.435.544-.652 1.307-.652 2.341 0 .871.217 1.525.598 2.069.38.49.924.762 1.631.762s1.25-.272 1.631-.762c.435-.436.653-1.089.653-1.851M80.298 91.106H74.37c0 .816.272 1.415.76 1.85q.735.654 1.958.654c.925 0 1.795-.272 2.556-.817v1.58c-.816.49-1.849.761-3.154.761s-2.284-.38-2.99-1.197-1.088-1.906-1.088-3.321c0-1.362.38-2.45 1.196-3.322.816-.87 1.795-1.306 2.991-1.306q1.794 0 2.773 1.143c.653.762.979 1.851.979 3.212v.763zm-1.904-1.416q0-1.062-.489-1.633c-.326-.381-.761-.6-1.36-.6-.543 0-1.032.219-1.413.6-.38.435-.653.98-.707 1.633z"/></svg>
